src/lib/packages/icons/src/assets/line/arrows-expand.svg

<svg width="24" height="24" viewBox="0 0 24 24" fill="none" xmlns="http://www.w3.org/2000/svg">
<path d="M21.75 3V9C21.75 9.414 21.414 9.75 21 9.75C20.586 9.75 20.25 9.414 20.25 9V4.81104L14.53 10.531C14.384 10.677 14.192 10.751 14 10.751C13.808 10.751 13.616 10.678 13.47 10.531C13.177 10.238 13.177 9.76297 13.47 9.46997L19.1899 3.75H15C14.586 3.75 14.25 3.414 14.25 3C14.25 2.586 14.586 2.25 15 2.25H21C21.098 2.25 21.1951 2.27011 21.2871 2.30811C21.4701 2.38411 21.6161 2.53011 21.6931 2.71411C21.7301 2.80511 21.75 2.902 21.75 3ZM9.46997 13.47L3.75 19.1899V15C3.75 14.586 3.414 14.25 3 14.25C2.586 14.25 2.25 14.586 2.25 15V21C2.25 21.098 2.27011 21.1951 2.30811 21.2871C2.38411 21.4701 2.52989 21.6159 2.71289 21.6919C2.80489 21.7299 2.902 21.75 3 21.75H9C9.414 21.75 9.75 21.414 9.75 21C9.75 20.586 9.414 20.25 9 20.25H4.81104L10.531 14.53C10.824 14.237 10.824 13.762 10.531 13.469C10.238 13.176 9.76297 13.177 9.46997 13.47Z" fill="currentColor"/>
</svg>

<svg xmlns="http://www.w3.org/2000/svg" width="24" height="24" fill="none"><path fill="currentColor" d="M21.75 3v6a.75.75 0 0 1-1.5 0V4.811l-5.72 5.72a.748.748 0 0 1-1.06 0 .75.75 0 0 1 0-1.061l5.72-5.72H15a.75.75 0 0 1 0-1.5h6a.751.751 0 0 1 .75.75ZM9.47 13.47l-5.72 5.72V15a.75.75 0 0 0-1.5 0v6a.751.751 0 0 0 .75.75h6a.75.75 0 0 0 0-1.5H4.811l5.72-5.72a.75.75 0 1 0-1.061-1.06Z"/></svg>
